X:1
T:Title
%%score { 1 | 2 }
L:1/8
Q:1/4=112
M:4/4
K:Eb
V:1 treble nm="Grand Piano"
V:2 bass 
V:1
 [GB]3 A G3 F | E2 B,2 E2 E2 | [Ac]3 [Ac] [GB]2 [EG]2 | [DF]6 z2 | [GB]3 A G3 F | E2 B,2 E2 E2 | %6
w: Asa~Hull * * *||||||
 [Ge]3 [Ge] [Fd]2 [Ec]2 | [B,DB]6 cd | [Ge]3 [Af] [Ge]2 [Ac]2 | [GB]2 [EG]2 [GB]4 | %10
w: ||||
 [Ge]3 [Af] [Ge]2 [Ac]2 | [GB]2 [B,EG]2 [B,DF]4 | [G,E]3 [B,DF] [B,EG]2 [EB]2 | %13
w: |||
[M:5/4] [Ge]3 [Bd] c6 |[M:4/4] d2 e2 B3 [EG] |[M:5/4] [EG]2 [DF]2 E6 |] %16
w: |||
V:2
 [E,E]3 [E,CE] [E,B,E]3 [E,A,B,] | [E,G,B,]2 [E,G,]2 [E,G,B,]2 [E,G,B,]2 | %2
 [E,E]3 [E,E] [E,E]2 [E,B,]2 | [B,,B,]6 z2 | [E,E]3 [E,CE] [E,B,E]3 [E,A,B,] | %5
 [E,G,B,]2 [E,G,]2 [E,G,B,]2 [E,G,B,]2 | [E,B,]3 [E,B,] [F,B,]2 [F,=A,]2 | %7
 B,,4- B,,[K:treble]B=A_A | [E,B,]3 [E,B,] [E,B,]2 [E,E]2 | [E,E]2 [E,B,]2 [E,E]4 | %10
 [E,B,]3 [E,B,] [E,B,]2 [E,E]2 | [E,E]2 E,2 B,,4 | E,3 B,, E,2 [E,G,]2 | %13
[M:5/4] [E,B,]3[K:treble] [G,E] [A,EA]6 |[M:4/4] [A,CA]2 [A,CA]2 [B,G]3[K:bass] [B,,B,] | %15
[M:5/4] [B,,B,]2 [B,,A,]2 [E,G,]6 |] %16

